X:324
T:Torry Burn lasses
T:Comely Jane Downing
R:Reel
O:Scotland, Ireland
B:O'Neill's 1461 (=Kerr's)
B:Kerr's First p23
S:Kerr's First p23
Z:Transcription, chords:Mike Long
M:C|
L:1/8
K:G
"G"G2BG BddB|"C"c2ec efg2|"G"G2BG Bddg|"C"edcB "D"A2G2:|\
"G"g2bg "D"afed|"C"edef "G"gdBd|
"G"g2bg "D"afed|"C"edef "G"g2ga|\
"G"bagf gfed|"C"edef "G"gdBd|"C"cBcd efge|"G"dBGB "D"A2"(G)"G2|]
